src/icons/io.github.kolumni.Bazaar.Network.svg

<svg width="128" height="128" viewBox="0 0 128 128" fill="none" xmlns="http://www.w3.org/2000/svg">
<path d="M122 65.4499C122 80.9651 115.837 95.8448 104.866 106.816C93.8949 117.787 79.0152 123.95 63.5 123.95C55.8177 123.95 48.2106 122.437 41.113 119.497C34.0155 116.557 27.5665 112.248 22.1342 106.816C16.702 101.383 12.3929 94.9345 9.45304 87.8369C6.51313 80.7394 5 73.1323 5 65.4499C5 57.7676 6.51315 50.1605 9.45305 43.063C12.393 35.9654 16.702 29.5164 22.1343 24.0842C27.5665 18.652 34.0155 14.3429 41.113 11.403C48.2106 8.4631 55.8177 6.94995 63.5 6.94995C79.0152 6.94995 93.8949 13.1133 104.866 24.0842C115.837 35.0551 122 49.9348 122 65.4499Z" fill="#5E5C64"/>
<path d="M122 63.5C122 79.0152 115.837 93.8949 104.866 104.866C93.8949 115.837 79.0152 122 63.5 122C55.8177 122 48.2106 120.487 41.113 117.547C34.0155 114.607 27.5665 110.298 22.1343 104.866C16.702 99.4335 12.393 92.9845 9.45305 85.887C6.51315 78.7895 5 71.1823 5 63.5C5 55.8177 6.51313 48.2106 9.45304 41.113C12.3929 34.0155 16.702 27.5665 22.1342 22.1343C27.5665 16.702 34.0155 12.393 41.113 9.45305C48.2106 6.51315 55.8177 5 63.5 5C79.0152 5 93.8949 11.1634 104.866 22.1343C115.837 33.1051 122 47.9848 122 63.5Z" fill="url(#paint0_radial_63_357)"/>
<path d="M111.275 63.4999C111.275 37.1145 89.8855 15.7249 63.5001 15.7249C37.1147 15.7249 15.7251 37.1145 15.7251 63.4999C15.7251 89.8853 37.1147 111.275 63.5001 111.275C89.8855 111.275 111.275 89.8853 111.275 63.4999Z" fill="#F6F5F4"/>
<path d="M63.5 85.9252C75.885 85.9252 85.925 75.8852 85.925 63.5002C85.925 51.1152 75.885 41.0752 63.5 41.0752C51.115 41.0752 41.075 51.1152 41.075 63.5002C41.075 75.8852 51.115 85.9252 63.5 85.9252Z" fill="#F6F5F4" stroke="#C0BFBC" stroke-width="3.9" stroke-linecap="round" stroke-linejoin="round"/>
<path d="M60.575 41.0752L63.5 21.5752L66.425 41.0752H60.575Z" fill="#C0BFBC"/>
<path d="M41.1111 65.3019L21.6111 62.3769L41.1111 59.4519V65.3019Z" fill="#C0BFBC"/>
<path d="M85.9121 65.7772L105.412 62.8522L85.9121 59.9272V65.7772Z" fill="#C0BFBC"/>
<path d="M61.1685 85.915L64.0935 105.415L67.0185 85.915H61.1685Z" fill="#C0BFBC"/>
<path d="M56.7161 70.5048L70.5046 56.7163L32.4673 32.4675L56.7161 70.5048Z" fill="#ED333B"/>
<path d="M56.7161 70.5049L70.5046 56.7163L94.5327 94.533L56.7161 70.5049Z" fill="#3584E4"/>
<path d="M56.7161 70.5048L63.6103 63.6106L32.4673 32.4675L56.7161 70.5048Z" fill="#A51D2D"/>
<path d="M56.7161 70.5046L63.6103 63.6104L94.5327 94.5328L56.7161 70.5046Z" fill="#1755A1"/>
<path d="M63.5001 66.9126C65.3848 66.9126 66.9126 65.3848 66.9126 63.5001C66.9126 61.6155 65.3848 60.0876 63.5001 60.0876C61.6155 60.0876 60.0876 61.6155 60.0876 63.5001C60.0876 65.3848 61.6155 66.9126 63.5001 66.9126Z" fill="#F6F5F4"/>
<defs>
<radialGradient id="paint0_radial_63_357" cx="0" cy="0" r="1" gradientUnits="userSpaceOnUse" gradientTransform="translate(64.0225 62.525) scale(58.5)">
<stop stop-color="#1A5FB4"/>
<stop offset="0.73913" stop-color="#9A9996"/>
<stop offset="0.895652" stop-color="#DEDDDA"/>
<stop offset="1" stop-color="#9A9996"/>
</radialGradient>
</defs>
</svg>

<svg xmlns="http://www.w3.org/2000/svg" width="128" height="128" fill="none" viewBox="0 0 128 128"><path fill="#5e5c64" d="M122 65.45a58.5 58.5 0 1 1-117.001 0 58.5 58.5 0 0 1 117.001 0"/><path fill="url(#a)" d="M122 63.5a58.5 58.5 0 1 1-117 0 58.5 58.5 0 0 1 117 0"/><path fill="#f6f5f4" d="M111.275 63.5c0-26.385-21.39-47.775-47.775-47.775S15.725 37.115 15.725 63.5s21.39 47.775 47.775 47.775 47.775-21.39 47.775-47.775"/><path fill="#f6f5f4" stroke="#c0bfbc" stroke-linecap="round" stroke-linejoin="round" stroke-width="3.9" d="M63.5 85.925c12.385 0 22.425-10.04 22.425-22.425S75.885 41.075 63.5 41.075 41.075 51.115 41.075 63.5 51.115 85.925 63.5 85.925"/><path fill="#c0bfbc" d="m60.575 41.075 2.925-19.5 2.925 19.5zM41.111 65.302l-19.5-2.925 19.5-2.925zm44.801.475 19.5-2.925-19.5-2.925zM61.169 85.915l2.925 19.5 2.925-19.5z"/><path fill="#ed333b" d="m56.716 70.505 13.789-13.789-38.038-24.248z"/><path fill="#3584e4" d="m56.716 70.505 13.789-13.789 24.028 37.817z"/><path fill="#a51d2d" d="m56.716 70.505 6.894-6.894-31.143-31.143z"/><path fill="#1755a1" d="m56.716 70.505 6.894-6.895 30.923 30.923z"/><path fill="#f6f5f4" d="M63.5 66.913a3.412 3.412 0 1 0 0-6.825 3.412 3.412 0 0 0 0 6.825"/><defs><radialGradient id="a" cx="0" cy="0" r="1" gradientTransform="translate(64.022 62.525)scale(58.5)" gradientUnits="userSpaceOnUse"><stop stop-color="#1a5fb4"/><stop offset=".739" stop-color="#9a9996"/><stop offset=".896" stop-color="#deddda"/><stop offset="1" stop-color="#9a9996"/></radialGradient></defs></svg>
